X: 37
T: Missa De beata virgine / Gloria
N: Derived from Rue1008b-Missa_De_beata_virgine-Gloria.krn
C: Pierre de la Rue
%%abc-version 2.0
%%abcx-abcm2ps-target-version 5.9.1 (29 Sep 2008)
%%abc-creator hum2abc beta
%%abcx-conversion-date 2019/02/17 08:01:10
%%abc-edited-by Jesse Rodin
%%abc-edited-by Jesse Rodin/Chris Gage 09-11-2012
%%abcx-initial-encoding-date 2012/09/18/
%%humdrum-veritas 3831649591
%%humdrum-veritas-data 1013304389
%%linebreak <none>
%%barnumbers 0
L: 1/4
M: 2/1
Q: 1/2=120
%%staves [1 2 3 4]
V: 1 clef=treble
V: 2 clef=treble-8
V: 3 clef=treble-8
V: 4 clef=bass
K: C
[V:1] z8 | 
[V:2] z4g4 | 
[V:3] d4e2B2 | 
[V:4] z8 | 
[V:1] z4d4 | 
[V:2] a2e2f4 | 
[V:3] c4d4 | 
[V:4] z8 | 
[V:1] e2B2c4 | 
[V:2] g4z2g2 | 
[V:3] z8 | 
[V:4] G,4A,2E,2 | 
[V:1] d4z2G2 | 
[V:2] f2d2g4 | 
[V:3] z8 | 
[V:4] F,2G,4E,2 | 
[V:1] A2B2c2A2 | 
[V:2] z4c2d2 | 
[V:3] z2G2A2A2 | 
[V:4] F,2G,2F,2F,2 | 
[V:1] G2c3BAG | 
[V:2] e2f2e2f2- | 
[V:3] B2A2c2c2- | 
[V:4] G,2A,4F,2- | 
[V:1] A2G4^F2 | 
[V:2] f2d6 | 
[V:3] cBAGA4 | 
[V:4] F,2G,2D,4 | 
[V:1] G8 | 
[V:2] B6AG | 
[V:3] G8 | 
[V:4] z8 | 
[V:1] z8 | 
[V:2] G8 | 
[V:3] z2d2d3c | 
[V:4] z6G,2- | 
[V:1] z8 | 
[V:2] z8 | 
[V:3] B2A2c4 | 
[V:4] G,2F,2E,4 | 
[V:1] z2d2d3c | 
[V:2] z2f2f2g2- | 
[V:3] d4z4 | 
[V:4] D,4z4 | 
[V:1] B2A2c4 | 
[V:2] g2f2e4 | 
[V:3] z8 | 
[V:4] z8 | 
[V:1] d2d4B2 | 
[V:2] d4g4 | 
[V:3] z8 | 
[V:4] z8 | 
[V:1] c2A2G4 | 
[V:2] e2f2g4 | 
[V:3] z2d4B2 | 
[V:4] z4G,4 | 
[V:1] z6d2 | 
[V:2] c4z4 | 
[V:3] c2A2G4 | 
[V:4] E,2F,2G,4 | 
[V:1] e2d2c2B2 | 
[V:2] z6g2 | 
[V:3] z8 | 
[V:4] C,2G,2A,2G,2 | 
[V:1] A4f4 | 
[V:2] a3gf2e2 | 
[V:3] z4A4- | 
[V:4] F,3E,D,4- | 
[V:1] f2f4e2- | 
[V:2] d4z2e2 | 
[V:3] A2A2A4 | 
[V:4] D,4A,4 | 
[V:1] e2c4B2 | 
[V:2] e2e4e2 | 
[V:3] c4A2G2 | 
[V:4] A,2A,4E,2 | 
[V:1] A4B4 | 
[V:2] f2f2g4 | 
[V:3] c4d2d2 | 
[V:4] A,2A,2G,4 | 
[V:1] z2A2B2B2 | 
[V:2] c4z2d2 | 
[V:3] f2e2g4 | 
[V:4] A,4z2G,2 | 
[V:1] A2c2c2A2- | 
[V:2] c2c2c2f2- | 
[V:3] z2e2f3e | 
[V:4] A,2A,2F,2F,2 | 
[V:1] A2G4^F2 | 
[V:2] fed4d2 | 
[V:3] c2B2A4 | 
[V:4] F,2G,2D,4 | 
[V:1] G8 | 
[V:2] B4z4 | 
[V:3] G8 | 
[V:4] G,4z4 | 
[V:1] z2d4c2 | 
[V:2] g4f2e2 | 
[V:3] z8 | 
[V:4] z8 | 
[V:1] B2A2G4 | 
[V:2] d2c2z4 | 
[V:3] z4d3c | 
[V:4] z4G,4- | 
[V:1] z8 | 
[V:2] z8 | 
[V:3] B2A2G4 | 
[V:4] G,2F,2E,2D,2 | 
[V:1] z8 | 
[V:2] e4f2g2 | 
[V:3] z2c2d2e2- | 
[V:4] C,4z2G,2- | 
[V:1] z2c3de2 | 
[V:2] e2f2g2G2 | 
[V:3] e2c6 | 
[V:4] G,2F,2E,4 | 
[V:1] A2d2c2B2 | 
[V:2] A4z2B2 | 
[V:3] d4A2d2 | 
[V:4] D,4z2G,2 | 
[V:1] A2B2AGA2 | 
[V:2] c2d2f2f2 | 
[V:3] c2B2c4 | 
[V:4] A,2G,2F,2F,2 | 
[V:1] D2G4^F2 | 
[V:2] d2d2d4 | 
[V:3] B3cA4 | 
[V:4] G,2G,2D,4 | 
[V:1] G4z4 | 
[V:2] z8 | 
[V:3] G8 | 
[V:4] z8 | 
[V:1] A4G2F2 | 
[V:2] c4B2A2 | 
[V:3] z8 | 
[V:4] z8 | 
[V:1] G4A4 | 
[V:2] B4A4 | 
[V:3] z4c4 | 
[V:4] z4A,4 | 
[V:1] z8 | 
[V:2] z8 | 
[V:3] B2A2B4 | 
[V:4] G,2F,2G,4 | 
[V:1] z2c2d2e2- | 
[V:2] z2a4e2 | 
[V:3] A4z4 | 
[V:4] A,4B,2C2 | 
[V:1] e2d4c2 | 
[V:2] a3ga4 | 
[V:3] c2d2e2e2 | 
[V:4] A,2B,2A,4 | 
[V:1] d2c2f2e2- | 
[V:2] z2a2a4- | 
[V:3] d2z4c2 | 
[V:4] z2A,2D,2C,2 | 
[V:1] e2d4^c2 | 
[V:2] a4a4 | 
[V:3] f4e4 | 
[V:4] D,4A,4 | 
[V:1] d4z2d2 | 
[V:2] f8 | 
[V:3] d8 | 
[V:4] D,8 | 
[V:1] d2B2c3B | 
[V:2] z2d2e2f2- | 
[V:3] z8 | 
[V:4] z8 | 
[V:1] A2G4c2 | 
[V:2] f2g2e2f2- | 
[V:3] z8 | 
[V:4] z8 | 
[V:1] A2B2c2A2- | 
[V:2] fed2c4 | 
[V:3] z8 | 
[V:4] z8 | 
[V:1] A2d2G2A2- | 
[V:2] f2d2e2d2- | 
[V:3] z4G4 | 
[V:4] z8 | 
[V:1] A2G4^F2 | 
[V:2] dGG2A4 | 
[V:3] c2B2c4 | 
[V:4] z8 | 
[V:1] G8 | 
[V:2] G8 | 
[V:3] d4z2e2 | 
[V:4] z6C,2 | 
[V:1] z8 | 
[V:2] z8 | 
[V:3] d2e3dd2 | 
[V:4] F,2E,2F,4 | 
[V:1] z8 | 
[V:2] z8 | 
[V:3] z2e4f2 | 
[V:4] G,2A,2G,2A,2 | 
[V:1] z8 | 
[V:2] z8 | 
[V:3] e2g2f2gf | 
[V:4] G,3B,A,2G,2- | 
[V:1] z4g3g | 
[V:2] z8 | 
[V:3] edd4^c2 | 
[V:4] G,2F,2E,4 | 
[V:1] f2f2d4 | 
[V:2] z8 | 
[V:3] d8 | 
[V:4] D,8 | 
[V:1] e4f2d2- | 
[V:2] g3gf2f2 | 
[V:3] z8 | 
[V:4] z8 | 
[V:1] d2f2e2c2 | 
[V:2] d4e4 | 
[V:3] z8 | 
[V:4] z8 | 
[V:1] d3cBAA2- | 
[V:2] f2d2d2c2 | 
[V:3] z8 | 
[V:4] z8 | 
[V:1] A2d4^c2 | 
[V:2] d4e4 | 
[V:3] z8 | 
[V:4] z8 | 
[V:1] d4z4 | 
[V:2] d4z4 | 
[V:3] z2f2f2e2 | 
[V:4] z2D,2D,2C,2 | 
[V:1] z8 | 
[V:2] z2f2f2e2 | 
[V:3] f2d2d2^c2 | 
[V:4] D,2D,2A,2A,2 | 
[V:1] z2f2f2e2 | 
[V:2] f2d2d2c2 | 
[V:3] d4z4 | 
[V:4] D,4z4 | 
[V:1] f2d2d2^c2 | 
[V:2] d4z4 | 
[V:3] z4z2e2 | 
[V:4] z4A,4 | 
[V:1] d4z2e2 | 
[V:2] a8 | 
[V:3] f2d4^c2 | 
[V:4] D4A,4 | 
[V:1] f2d3cBA | 
[V:2] a4g4- | 
[V:3] d8- | 
[V:4] D,4G,4- | 
[V:1] BAd4^c2 | 
[V:2] g2a3ge2 | 
[V:3] d4e4 | 
[V:4] G,2D,2A,4 | 
[V:1] d8 | 
[V:2] f4d4 | 
[V:3] d8 | 
[V:4] D,4z2G,2 | 
[V:1] z8 | 
[V:2] z8 | 
[V:3] z2g2g2g2 | 
[V:4] B,2B,2A,2A,2 | 
[V:1] z8 | 
[V:2] z8 | 
[V:3] g3fedf2- | 
[V:4] G,2B,4A,2- | 
[V:1] z8 | 
[V:2] z8 | 
[V:3] f2d4^c2 | 
[V:4] A,2G,F,E,4 | 
[V:1] z2d4d2 | 
[V:2] z2a4a2 | 
[V:3] d2f4f2 | 
[V:4] D,2D,4D,2 | 
[V:1] d2d2B3c | 
[V:2] a2a2g3g | 
[V:3] f2f2d3e | 
[V:4] D,2D,2G,3G, | 
[V:1] A2G2e2f2- | 
[V:2] c2e4A2 | 
[V:3] f2g4a2- | 
[V:4] F,2E,4D,2- | 
[V:1] fed4^c2 | 
[V:2] a6gf | 
[V:3] a2gfe4 | 
[V:4] D,E,F,G,A,4 | 
[V:1] d4z4 | 
[V:2] f4z4 | 
[V:3] d8 | 
[V:4] D,4z4 | 
[V:1] f8 | 
[V:2] a8 | 
[V:3] d8 | 
[V:4] D,8 | 
[V:1] e4c4 | 
[V:2] a8 | 
[V:3] c4c4 | 
[V:4] A,4A,4 | 
[V:1] d4e4- | 
[V:2] d4g4 | 
[V:3] B8 | 
[V:4] G,4E,4- | 
[V:1] e4f4- | 
[V:2] e4a4- | 
[V:3] c4d4 | 
[V:4] E,4D,4 | 
[V:1] f4d4 | 
[V:2] a4f4 | 
[V:3] A8- | 
[V:4] D,8- | 
[V:1] d8 ||  
[V:2] f8 ||  
[V:3] A8 ||  
[V:4] D,8 ||  
[V:1]  [K:C] [K:clef=treble][M:2/1]z8 | 
[V:2]  [K:C] [K:clef=treble-8][M:2/1]z8 | 
[V:3]  [K:C] [K:clef=treble-8][M:2/1]d4G4 | 
[V:4]  [K:C] [K:clef=bass][M:2/1]z8 | 
[V:1] d4G4 | 
[V:2] z8 | 
[V:3] d4z2c2 | 
[V:4] z8 | 
[V:1] d4z2e2 | 
[V:2] z8 | 
[V:3] f3ed2c2 | 
[V:4] z8 | 
[V:1] f3ed2^c2 | 
[V:2] z8 | 
[V:3] d4z4 | 
[V:4] z6A,2 | 
[V:1] d8 | 
[V:2] z6d2 | 
[V:3] z8 | 
[V:4] _B,3A,G,2F,2 | 
[V:1] z8 | 
[V:2] e2f2g3f | 
[V:3] z8 | 
[V:4] G,2A,2E,2G,2- | 
[V:1] z8 | 
[V:2] edd4^c2 | 
[V:3] z8 | 
[V:4] G,2F,2E,4 | 
[V:1] z8 | 
[V:2] d2f4e2 | 
[V:3] z2d4c2 | 
[V:4] D,4z4 | 
[V:1] z8 | 
[V:2] d2e2f2g2 | 
[V:3] B2c2A2G2 | 
[V:4] z8 | 
[V:1] z8 | 
[V:2] c4c4 | 
[V:3] z2e4e2 | 
[V:4] z2A,4G,2 | 
[V:1] z6c2 | 
[V:2] z6c2- | 
[V:3] f2d2g3f | 
[V:4] F,2G,2E,2C,2 | 
[V:1] d4e4 | 
[V:2] cBA4G2 | 
[V:3] edd4^c2 | 
[V:4] F,4E,4 | 
[V:1] f4d4 | 
[V:2] A8 | 
[V:3] d8 | 
[V:4] D,8 | 
[V:1] z8 | 
[V:2] A4c2d2- | 
[V:3] z8 | 
[V:4] F,4E,2D,2- | 
[V:1] A4c2d2- | 
[V:2] d2f2e2f2 | 
[V:3] z8 | 
[V:4] D,2D2A,2D2- | 
[V:1] d2f2e2f2 | 
[V:2] d4z4 | 
[V:3] z8 | 
[V:4] D4C2D2 | 
[V:1] d2g4f2- | 
[V:2] g6a2- | 
[V:3] z8 | 
[V:4] G,4z4 | 
[V:1] f2e2c2d2 | 
[V:2] a2g2e2d2 | 
[V:3] z8 | 
[V:4] z8 | 
[V:1] d4z4 | 
[V:2] d8 | 
[V:3] z2g4f2- | 
[V:4] B,8 | 
[V:1] z8 | 
[V:2] z8 | 
[V:3] f2e2c2d2 | 
[V:4] A,2G,2E,2D,2 | 
[V:1] z6e2 | 
[V:2] z4G4 | 
[V:3] d4z2g2 | 
[V:4] D,2F,2E,4 | 
[V:1] f2f2g3f | 
[V:2] d4B2B2 | 
[V:3] a4g2g2- | 
[V:4] D,4z2E,2 | 
[V:1] edd4^c2 | 
[V:2] c2A2A4 | 
[V:3] g2f2e4 | 
[V:4] C,2D,2A,4 | 
[V:1] d4z4 | 
[V:2] z6A2 | 
[V:3] d4z4 | 
[V:4] z2D,2F,3G, | 
[V:1] z8 | 
[V:2] c3defg2- | 
[V:3] z8 | 
[V:4] A,B,C3DE2- | 
[V:1] z8 | 
[V:2] g2f2e4 | 
[V:3] z8 | 
[V:4] EDD4^C2 | 
[V:1] z2ABcAe2- | 
[V:2] d4a4 | 
[V:3] z6c2 | 
[V:4] D4A,4 | 
[V:1] e2d4^c2 | 
[V:2] a4a4 | 
[V:3] f4e4 | 
[V:4] D4A,4 | 
[V:1] d8 | 
[V:2] f8 | 
[V:3] d8 | 
[V:4] D,4z4 | 
[V:1] [M:3/1]e6d2c4 | 
[V:2] [M:3/1]e8f4 | 
[V:3] [M:3/1]c8c4 | 
[V:4] [M:3/1]A,8A,4 | 
[V:1] B4G4B4 | 
[V:2] g8g4 | 
[V:3] d4e4e4- | 
[V:4] G,8E,4 | 
[V:1] c4d4f4 | 
[V:2] c4A4A4 | 
[V:3] e4d4d4 | 
[V:4] A,4D,4D,4 | 
[V:1] e6e2e4 | 
[V:2] c6c2c4 | 
[V:3] g6g2g4 | 
[V:4] C,6C,2C,4 | 
[V:1] d6B2c4 | 
[V:2] B3cd2e2c4 | 
[V:3] g8f4 | 
[V:4] G,4G,4A,4 | 
[V:1] B8z4 | 
[V:2] d8z4 | 
[V:3] g8d4 | 
[V:4] G,12 | 
[V:1] A4c4B4 | 
[V:2] d4A4B3c | 
[V:3] f4e4d4 | 
[V:4] z4z4G,4 | 
[V:1] A4B2d4c2 | 
[V:2] d4a8 | 
[V:3] f6d2e4 | 
[V:4] D,8A,4 | 
[V:1] d8B4 | 
[V:2] f4f2g4g2 | 
[V:3] d12 | 
[V:4] _B,4B,2G,4G,2 | 
[V:1] c4B2A4G2 | 
[V:2] e2A2B2c2F2G2 | 
[V:3] z12 | 
[V:4] A,4G,2F,4E,2 | 
[V:1] F4G2A4B2 | 
[V:2] A4z4F4 | 
[V:3] d4B2c4d2 | 
[V:4] D,4G,2F,4D,2 | 
[V:1] c4B2A4G2 | 
[V:2] G4F2A4d2 | 
[V:3] e4d2c4B2 | 
[V:4] C,4D,2F,4G,2 | 
[V:1] G8^F4 | 
[V:2] e4d8 | 
[V:3] c4A8 | 
[V:4] C,4D,8 | 
[V:1] G12 |]  
[V:2] B12 |]  
[V:3] G12 |]  
[V:4] G,12 |]  



